X: 98
T: CAHIRCIVEEN
B: O'Neill's 98
M: 6/8
L: 1/8
Z: Transcribed by John Chambers <jc@trillian.mit.edu>
N: "Slow with expression"
N: "Collected by F.O'Neill"
K:G
D \
|GAG FGA|BAG ADE|FED CB,C|DGBA G2D|
|GAG FGA|BAG ADE|FED TCB,C|DGA G2||
||B/c/ \
|dBd cBA|GAG FD B/c/|dBd cBA|TGFG B2A|
|GAG FGA|BAG ADE|FED TCB,C|DGA G2||
